austria/municipalities/40621.svg

<?xml version="1.0" encoding="UTF-8"?>
<!DOCTYPE svg PUBLIC "-//W3C//DTD SVG 1.1//EN" "http://www.w3.org/Graphics/SVG/1.1/DTD/svg11.dtd">
<svg xmlns="http://www.w3.org/2000/svg" version="1.1" width="100px" height="124px" style="shape-rendering:geometricPrecision; text-rendering:geometricPrecision; image-rendering:optimizeQuality; fill-rule:evenodd; clip-rule:evenodd" xmlns:xlink="http://www.w3.org/1999/xlink">
<g><path style="opacity:1" fill="#f7f8f9" d="M -0.5,-0.5 C 32.8333,-0.5 66.1667,-0.5 99.5,-0.5C 99.5,40.8333 99.5,82.1667 99.5,123.5C 66.1667,123.5 32.8333,123.5 -0.5,123.5C -0.5,82.1667 -0.5,40.8333 -0.5,-0.5 Z"/></g>
<g><path style="opacity:1" fill="#0a0d0c" d="M 29.5,0.5 C 52.5,0.5 75.5,0.5 98.5,0.5C 98.8085,28.8651 98.4752,57.1984 97.5,85.5C 96.6236,85.6309 95.9569,85.2975 95.5,84.5C 96.3094,82.9291 96.6427,81.2624 96.5,79.5C 96.5,54.5 96.5,29.5 96.5,4.5C 73.8576,2.5103 50.8576,1.84363 27.5,2.5C 28.1667,1.83333 28.8333,1.16667 29.5,0.5 Z"/></g>
<g><path style="opacity:1" fill="#027745" d="M 96.5,4.5 C 96.5,29.5 96.5,54.5 96.5,79.5C 95.7321,80.2625 95.2321,81.2625 95,82.5C 90.7053,79.178 86.372,75.8447 82,72.5C 80.4803,68.0681 78.8136,63.7348 77,59.5C 71.9607,55.8309 66.9607,52.1643 62,48.5C 59.6703,42.1812 56.5036,36.3478 52.5,31C 47.0828,28.2097 41.9161,25.043 37,21.5C 34.2128,16.261 31.7128,10.9276 29.5,5.5C 40.1458,4.1678 51.1458,3.50114 62.5,3.5C 73.9071,3.5103 85.2404,3.84363 96.5,4.5 Z"/></g>
<g><path style="opacity:1" fill="#2b674e" d="M 27.5,2.5 C 50.8576,1.84363 73.8576,2.5103 96.5,4.5C 85.2404,3.84363 73.9071,3.5103 62.5,3.5C 51.1458,3.50114 40.1458,4.1678 29.5,5.5C 28.0937,5.02694 27.427,4.02694 27.5,2.5 Z"/></g>
<g><path style="opacity:1" fill="#0c1212" d="M 29.5,0.5 C 28.8333,1.16667 28.1667,1.83333 27.5,2.5C 27.427,4.02694 28.0937,5.02694 29.5,5.5C 31.7128,10.9276 34.2128,16.261 37,21.5C 41.9161,25.043 47.0828,28.2097 52.5,31C 56.5036,36.3478 59.6703,42.1812 62,48.5C 66.9607,52.1643 71.9607,55.8309 77,59.5C 78.8136,63.7348 80.4803,68.0681 82,72.5C 86.372,75.8447 90.7053,79.178 95,82.5C 95.2321,81.2625 95.7321,80.2625 96.5,79.5C 96.6427,81.2624 96.3094,82.9291 95.5,84.5C 95.9569,85.2975 96.6236,85.6309 97.5,85.5C 85.7367,116.549 63.7367,127.716 31.5,119C 14.1714,111.341 4.00476,98.1742 1,79.5C 0.500027,53.1688 0.33336,26.8354 0.5,0.5C 10.1667,0.5 19.8333,0.5 29.5,0.5 Z"/></g>
<g><path style="opacity:1" fill="#0e1816" d="M 6.5,23.5 C 7.4959,23.4142 8.32924,23.7476 9,24.5C 10.4696,29.2426 12.1363,33.9093 14,38.5C 15.1667,39.6667 16.3333,40.8333 17.5,42C 23.1964,43.9303 28.3631,46.7636 33,50.5C 36.1988,56.2337 38.8655,62.2337 41,68.5C 43.3876,71.6337 46.5543,73.467 50.5,74C 52.7899,75.7772 54.4566,77.9438 55.5,80.5C 51.0028,76.002 45.6695,73.002 39.5,71.5C 38.3716,62.7435 34.705,55.2435 28.5,49C 23.6195,46.6427 18.7862,44.1427 14,41.5C 11.4944,35.4449 8.99438,29.4449 6.5,23.5 Z"/></g>
<g><path style="opacity:1" fill="#047744" d="M 6.5,23.5 C 8.99438,29.4449 11.4944,35.4449 14,41.5C 18.7862,44.1427 23.6195,46.6427 28.5,49C 34.705,55.2435 38.3716,62.7435 39.5,71.5C 45.6695,73.002 51.0028,76.002 55.5,80.5C 57.4406,85.7146 59.9406,90.7146 63,95.5C 68.3552,98.6781 73.3552,102.345 78,106.5C 78.9201,109.308 78.0867,111.475 75.5,113C 47.7276,126.6 25.2276,120.767 8,95.5C 5.73136,90.3604 4.06469,85.0271 3,79.5C 2.50005,60.8363 2.33339,42.1696 2.5,23.5C 3.83333,23.5 5.16667,23.5 6.5,23.5 Z"/></g>
<g><path style="opacity:1" fill="#f9f9fa" d="M 55.5,80.5 C 54.4566,77.9438 52.7899,75.7772 50.5,74C 46.5543,73.467 43.3876,71.6337 41,68.5C 38.8655,62.2337 36.1988,56.2337 33,50.5C 28.3631,46.7636 23.1964,43.9303 17.5,42C 16.3333,40.8333 15.1667,39.6667 14,38.5C 12.1363,33.9093 10.4696,29.2426 9,24.5C 8.32924,23.7476 7.4959,23.4142 6.5,23.5C 5.68512,22.1634 4.51845,21.1634 3,20.5C 2.50051,14.5092 2.33385,8.50924 2.5,2.5C 9.50793,2.33371 16.5079,2.50038 23.5,3C 24.3279,3.91471 25.3279,4.58138 26.5,5C 29.8977,10.1808 32.731,15.6808 35,21.5C 40.8994,26.0143 46.8994,30.3477 53,34.5C 55.2495,40.5968 58.2495,46.2635 62,51.5C 67.1949,54.0971 71.8616,57.4305 76,61.5C 77.7906,64.9928 79.124,68.6595 80,72.5C 81.0217,73.354 81.8551,74.354 82.5,75.5C 86.258,77.4612 89.758,79.7945 93,82.5C 94.9154,86.6227 94.582,90.6227 92,94.5C 89.2982,99.8926 85.6315,104.559 81,108.5C 79.5331,105.734 77.6998,103.234 75.5,101C 71.5036,99.3373 67.8369,97.1706 64.5,94.5C 61.4758,89.7686 58.4758,85.1019 55.5,80.5 Z"/></g>
</svg>

<svg xmlns="http://www.w3.org/2000/svg" width="100" height="124" style="shape-rendering:geometricPrecision;text-rendering:geometricPrecision;image-rendering:optimizeQuality;fill-rule:evenodd;clip-rule:evenodd"><path style="opacity:1" fill="#f7f8f9" d="M-.5-.5h100v124H-.5V-.5z"/><path style="opacity:1" fill="#0a0d0c" d="M29.5.5h69c.308 28.365-.025 56.698-1 85-.876.13-1.543-.203-2-1a9.106 9.106 0 0 0 1-5v-75c-22.642-1.99-45.642-2.656-69-2l2-2z"/><path style="opacity:1" fill="#027745" d="M96.5 4.5v75c-.768.763-1.268 1.763-1.5 3a3077.271 3077.271 0 0 0-13-10 187.466 187.466 0 0 0-5-13 2706.68 2706.68 0 0 1-15-11A68.688 68.688 0 0 0 52.5 31 122.088 122.088 0 0 1 37 21.5a173.542 173.542 0 0 1-7.5-16c10.646-1.332 21.646-1.999 33-2 11.407.01 22.74.344 34 1z"/><path style="opacity:1" fill="#2b674e" d="M27.5 2.5c23.358-.656 46.358.01 69 2a593.334 593.334 0 0 0-34-1c-11.354.001-22.354.668-33 2-1.406-.473-2.073-1.473-2-3z"/><path style="opacity:1" fill="#0c1212" d="m29.5.5-2 2c-.073 1.527.594 2.527 2 3a173.542 173.542 0 0 0 7.5 16A122.088 122.088 0 0 0 52.5 31 68.688 68.688 0 0 1 62 48.5c4.96 3.664 9.96 7.33 15 11a187.466 187.466 0 0 1 5 13c4.372 3.345 8.705 6.678 13 10 .232-1.237.732-2.237 1.5-3a9.106 9.106 0 0 1-1 5c.457.797 1.124 1.13 2 1-11.763 31.049-33.763 42.216-66 33.5C14.171 111.341 4.005 98.174 1 79.5A3120.94 3120.94 0 0 1 .5.5h29z"/><path style="opacity:1" fill="#0e1816" d="M6.5 23.5c.996-.086 1.83.248 2.5 1a174.55 174.55 0 0 0 5 14l3.5 3.5c5.696 1.93 10.863 4.764 15.5 8.5a109.008 109.008 0 0 1 8 18c2.388 3.134 5.554 4.967 9.5 5.5 2.29 1.777 3.957 3.944 5 6.5-4.497-4.498-9.83-7.498-16-9-1.128-8.757-4.795-16.257-11-22.5A299.337 299.337 0 0 1 14 41.5a3957.453 3957.453 0 0 0-7.5-18z"/><path style="opacity:1" fill="#047744" d="M6.5 23.5a3957.453 3957.453 0 0 1 7.5 18A299.337 299.337 0 0 0 28.5 49c6.205 6.243 9.872 13.743 11 22.5 6.17 1.502 11.503 4.502 16 9a78.83 78.83 0 0 0 7.5 15 95.71 95.71 0 0 1 15 11c.92 2.808.087 4.975-2.5 6.5-27.772 13.6-50.272 7.767-67.5-17.5a74.298 74.298 0 0 1-5-16c-.5-18.664-.667-37.33-.5-56h4z"/><path style="opacity:1" fill="#f9f9fa" d="M55.5 80.5c-1.043-2.556-2.71-4.723-5-6.5-3.946-.533-7.112-2.366-9.5-5.5a109.008 109.008 0 0 0-8-18c-4.637-3.736-9.804-6.57-15.5-8.5L14 38.5a174.55 174.55 0 0 1-5-14c-.67-.752-1.504-1.086-2.5-1-.815-1.337-1.982-2.337-3.5-3-.5-5.99-.666-11.99-.5-18 7.008-.166 14.008 0 21 .5a7.291 7.291 0 0 0 3 2A88.866 88.866 0 0 1 35 21.5c5.9 4.514 11.9 8.848 18 13a71.652 71.652 0 0 0 9 17 54.785 54.785 0 0 1 14 10 46.86 46.86 0 0 1 4 11 10.76 10.76 0 0 1 2.5 3 58.792 58.792 0 0 1 10.5 7c1.915 4.123 1.582 8.123-1 12-2.702 5.393-6.368 10.059-11 14a32.008 32.008 0 0 0-5.5-7.5 45.45 45.45 0 0 1-11-6.5 3149.577 3149.577 0 0 0-9-14z"/></svg>
